btlcenter/img/icon_guitar.svg

<svg fill="none" height="47" viewBox="0 0 47 47" width="47" xmlns="http://www.w3.org/2000/svg"><g fill="#000"><path d="m14.6424 31.1264c.0065-.0087.0131-.0174.0195-.0264-.0064.009-.0131.0177-.0195.0264z"/><path d="m26.1762 15.625c.2317 0 .4583-.0687.651-.1975s.3429-.3118.4316-.5259c.0887-.2142.1119-.4498.0667-.6771s-.1568-.4361-.3207-.6-.3727-.2755-.6-.3207-.4629-.022-.6771.0667c-.2141.0887-.3971.2389-.5259.4316s-.1975.4193-.1975.651c.0004.3107.1239.6086.3436.8283s.5176.3432.8283.3436z"/><path d="m33.2074 15.625c.2318 0 .4583-.0687.6511-.1975.1927-.1288.3429-.3118.4316-.5259.0887-.2142.1119-.4498.0666-.6771-.0452-.2273-.1568-.4361-.3207-.6s-.3727-.2755-.6-.3207-.4629-.022-.6771.0667c-.2141.0887-.3971.2389-.5259.4316-.1287.1927-.1975.4193-.1975.651.0004.3107.124.6086.3437.8283.2196.2197.5175.3432.8282.3436z"/><path d="m27.3481 20.3125h1.4542c1.3574 0 2.6456-.3152 3.6269-.8877l-.7873-1.3496c-.7353.4288-1.7702.6748-2.8396.6748h-1.4542z"/><path d="m43.0556 28.322-8.6763-1.6267v-2.4799c.971-.7263 1.759-1.6692 2.3015-2.7536s.8245-2.2805.8235-3.493c.7225-.0003 1.4226-.2508 1.9812-.709.5585-.4583.9411-1.0959 1.0825-1.8044s.0329-1.4442-.307-2.0817c-.3398-.6376-.8901-1.1377-1.5572-1.4152.586-.3449 1.0718-.8366 1.4095-1.4267.3377-.59014.5155-1.25815.516-1.93805 0-.2072-.0823-.40591-.2288-.55243-.1465-.14651-.3453-.22882-.5525-.22882h-2.3437v-.46426c0-.0164 0-.03291 0-.04883-.0014-.66836-.0274-1.29043-.0807-1.89921-.0562-.63409-.1376-1.27647-.2414-1.90733-.1574-.97698-.6597-1.86518-1.416-2.503417-.4382-.371161-.9482-.647931-1.4982-.813003-.55-.1650716-1.1281-.2148945-1.6982-.146353-.5702.0685415-1.12.253973-1.6152.544699s-.9251.680494-1.2628 1.144934c-.3376-.46439-.7674-.854148-1.2625-1.144898-.495-.290749-1.0448-.4762424-1.6148-.5448827s-1.148-.0189517-1.698.1459597c-.5499.164911-1.0599.441498-1.4981.81247-.7561.637801-1.2585 1.525461-1.4161 2.501951-.1042.63291-.1855 1.27529-.2419 1.91035-.0531.60782-.0792 1.22989-.0805 1.89825v.04882.46475h-2.3444c-.2072 0-.4059.08231-.5524.22882-.1465.14652-.2288.34523-.2288.55243.0005.6799.1783 1.34791.516 1.93805.3377.5901.8235 1.0818 1.4095 1.4267-.6671.2775-1.2174.7776-1.5572 1.4152-.3399.6375-.4484 1.3732-.307 2.0817s.524 1.3461 1.0825 1.8044c.5586.4582 1.2587.7087 1.9812.709-.001 1.2125.281 2.4085.8235 3.4929s1.3306 2.0272 2.3015 2.7535v2.4798l-7.157 1.3421c-.0577-.7633-.0338-1.5306.0714-2.2889.0472-.335.0625-.6738.0457-1.0118-.1218-2.5651-2.1184-4.6888-4.6789-5.1197v-10.11475l.7413-2.22353c.0265-.07971.04-.16317.04-.24717v-.78125h1.5625v-1.5625h-1.5625v-1.5625h1.5625v-1.5625h-1.5625v-.78125c0-.2072-.0823-.405914-.2288-.552427s-.3453-.228823-.5525-.228823h-5.4687c-.2072 0-.40592.08231-.55243.228823s-.22882.345227-.22882.552427v.78125h-1.5625v1.5625h1.5625v1.5625h-1.5625v1.5625h1.5625v.78125c.00002.08397.01354.16739.04004.24707l.74121 2.22363v10.11475c-2.56045.4309-4.55703 2.5543-4.67862 5.1156-.01712.3386-.00198.6781.04522 1.0138.23174 1.7016.19658 4.1417-1.28818 6.105-1.288387 1.7031-1.9556085 3.7956-1.89092271 5.9301.03901031 1.2234.32258571 2.4265.83400371 3.5385.511419 1.112 1.240319 2.1104 2.143729 2.9362 1.81173 1.6861 4.19572 2.6222 6.6707 2.6191h1.79687c.9101.0013 1.8157-.1274 2.6894-.3821.4574.249.9695.3803 1.4903.3821h4.6875c.0261 0 .0522-.0013.0781-.0039l9.2969-.9297 9.2969.9297c.0259.0026.052.0039.0781.0039h4.6875c.8285-.0009 1.6228-.3305 2.2087-.9163.5858-.5859.9154-1.3802.9163-2.2087v-10.8203c-.0005-1.0933-.3829-2.152-1.0811-2.9933-.6981-.8413-1.6682-1.4123-2.7426-1.6144zm2.2612 9.9592h-5.2322l2.3437-1.5624h2.8885zm0-5.3515v2.2265h-3.125c-.1543.0001-.3051.0457-.4334.1313l-4.4906 2.9937h-15.152l-4.4906-2.9937c-.1283-.0856-.2791-.1312-.4334-.1313h-3.125v-2.2265c-.0003-.6337.1925-1.2524.5528-1.7736.0079-.0098.0153-.0196.0228-.0293-.0041.0053-.0089.0097-.0131.0154.0137-.0195.028-.0386.0421-.0579-.0034.0053-.0062.0108-.0098.016.0054-.0077.0104-.0156.0154-.0235.4685-.6374 1.1616-1.073 1.939-1.2188l6.2064-1.1639.3177 1.3099c.3563 1.469 1.196 2.7757 2.3842 3.7101 1.1881.9345 2.6559 1.4425 4.1675 1.4425s2.9794-.508 4.1675-1.4425c1.1882-.9344 2.0279-2.2411 2.3842-3.7101l.3176-1.3099 6.2069 1.1636c.7162.1348 1.3629.5156 1.8282 1.0765.4654.5609.7203 1.2667.7206 1.9955zm-32.8125 7.6953h-4.6875v-1.5625h4.6875zm-.7813-14.6799c-.7659-.2184-1.5777-.2184-2.3437 0v-15.7889h2.3437zm-2.69155 1.8611c.4116-.2751.89019-.4334 1.38475-.4578.4945-.0245.9863.0858 1.4231.319.4367.2333.8019.5807 1.0566 1.0053.2548.4245.3894.9103.3896 1.4054-.0004.0962-.0059.1922-.0163.2878-.2962.4525-.5117.9529-.6371 1.4789-.2527.2981-.5665.5386-.9201.705-.3536.1665-.7388.2552-1.1296.26-.3908.0049-.77808-.0741-1.13572-.2317s-.6773-.3902-.93739-.6819-.45456-.6358-.57027-1.0092c-.11572-.3733-.14999-.767-.10049-1.1547.04949-.3877.1816-.7603.38739-1.0925.20579-.3323.48048-.6165.80553-.8336zm28.47285-11.4v-3.125c.4144 0 .8118.1647 1.1048.4577.2931.293.4577.6904.4577 1.1049 0 .4144-.1646.8118-.4577 1.1048-.293.293-.6904.4576-1.1048.4576zm-13.7598-12.66421c.1003-.60947.4142-1.16339.8854-1.56269.4713-.39929 1.0692-.61793 1.6869-.6168.4301.00124.8534.10821 1.2324.31148.3791.20328.7024.49664.9414.85424.1327.19689.3117.35815.5213.46957.2096.11143.4434.1696.6808.1694s.4711-.05878.6805-.17056.3882-.27334.5205-.47046c.2391-.35721.5623-.65017.9413-.85309.3789-.20292.8019-.30957 1.2318-.31058.6181-.00117 1.2164.2177 1.6878.61742s.7851.95418.885 1.56412c.0516.3125.0967.62823.136.94346h-12.1678c.0396-.31563.0848-.63145.1367-.94551zm-.3027 3.60957c0-.00488.0186-.91924.0277-1.10156h12.4446c.009.18232.0277 1.5625.0277 1.5625h-12.5zm-.7813 2.02344h16.2724c-.1621.45665-.4615.852-.8571 1.1317-.3957.2798-.8682.4302-1.3528.4308h-14.0625c-.4845-.0006-.957-.151-1.3527-.4308-.3956-.2797-.695-.67505-.8571-1.1317zm-2.3437 5.4688c.0005-.4143.1653-.8114.4582-1.1044.2929-.2929.69-.4577 1.1043-.4582v3.125c-.4143-.0004-.8114-.1652-1.1043-.4581-.2929-.293-.4577-.6901-.4582-1.1043zm3.125 3.125v-5.4395l.0251-.0293h12.4498l.0251.0293v5.4395c.0013 1.1207-.2991 2.2211-.8697 3.1857s-1.3904 1.7578-2.3733 2.2964c-.9829.5385-2.0926.8025-3.2127.7642-1.1201-.0382-2.2092-.3773-3.1531-.9816-.0067-.0044-.0136-.0086-.0205-.0128-.0152-.0091-.0313-.0184-.0478-.0277l-.0136-.0079c-.0104-.0078-.0209-.0151-.0316-.0222-.8551-.5698-1.5562-1.3422-2.0408-2.2484-.4847-.9062-.7378-1.9181-.7369-2.9457zm1.8499 10.262c.3582-.0672.6816-.2575.9144-.5378.2329-.2804.3604-.6333.3607-.9977v-1.5697c.9851.4319 2.049.6551 3.1247.6556 1.0756.0006 2.1397-.2216 3.1253-.6525v1.5666c.0003.3644.1278.7173.3606.9977.2328.2803.5562.4705.9144.5378l.9315.1747-.2983 1.23c-.2738 1.1284-.9188 2.1322-1.8316 2.85-.9128.7179-2.0404 1.1081-3.2016 1.1081s-2.2888-.3902-3.2016-1.1081c-.9128-.7178-1.5578-1.7216-1.8316-2.85l-.2988-1.23zm-8.8879-3.4163c.0119.2413.0008.4833-.0333.7226-.1283.9244-.1503 1.8604-.0657 2.7898-.5695.1096-1.1136.3243-1.6045.6332-.2297-.862-.7246-1.63-1.4148-2.1952v-5.5559c1.7235.4023 3.0354 1.8598 3.1183 3.6055zm-7.80575-23.252h3.90625v5.3418l-.5631 1.68945h-2.78007l-.56308-1.68945zm1.05468 43.75c-4.33339 0-7.96093-3.3995-8.08593-7.5755-.05377-1.78.50249-3.5249 1.57656-4.9454 1.80469-2.3865 1.85996-5.2637 1.58818-7.2586-.0338-.2393-.04469-.4813-.03252-.7226.08243-1.7421 1.39434-3.1991 3.11778-3.6014v5.5566c-.81752.6732-1.35748 1.6248-1.5162 2.6719-.15871 1.047.07502 2.1158.65631 3.0011.58129.8852 1.46914 1.5245 2.49304 1.795 1.02395.2706 2.11165.1533 3.05435-.3293v3.5957h-5.46875c-.2072 0-.40592.0823-.55243.2288s-.22882.3453-.22882.5524v3.125c0 .2072.08231.406.22882.5525s.34523.2288.55243.2288h5.46875v1.5625c.0003.5009.1205.9944.3508 1.4393-.464.0818-.9343.123-1.4055.1232zm5.97657 0c-.3334-.0011-.6578-.1082-.9263-.3059-.199-.143-.3608-.3319-.4715-.5506s-.1672-.4609-.1647-.706h2.1072l2.1469 1.4313c.1283.0855.2791.1312.4334.1312zm29.6875-1.5625c-.0005.4142-.1653.8114-.4582 1.1043s-.6901.4577-1.1043.4582h-4.6484l-15.586-1.5586c-.0259-.0026-.052-.0039-.0781-.0039h-4.451l-2.1469-1.4313c-.1283-.0855-.2791-.1312-.4334-.1312h-2.3437v-5.4687h2.8885l4.4906 2.9937c.1283.0856.2791.1312.4334.1313h23.4375z"/></g></svg>

<svg width="47" height="47" viewBox="0 0 47 47" fill="none" xmlns="http://www.w3.org/2000/svg">
<path d="M14.6424 31.1264C14.6489 31.1177 14.6555 31.109 14.6619 31.1C14.6555 31.109 14.6488 31.1177 14.6424 31.1264Z" fill="black"/>
<path d="M26.1762 15.625C26.4079 15.625 26.6345 15.5563 26.8272 15.4275C27.0199 15.2987 27.1701 15.1157 27.2588 14.9016C27.3475 14.6874 27.3707 14.4518 27.3255 14.2245C27.2803 13.9972 27.1687 13.7884 27.0048 13.6245C26.8409 13.4606 26.6321 13.349 26.4048 13.3038C26.1775 13.2586 25.9419 13.2818 25.7277 13.3705C25.5136 13.4592 25.3306 13.6094 25.2018 13.8021C25.073 13.9948 25.0043 14.2214 25.0043 14.4531C25.0047 14.7638 25.1282 15.0617 25.3479 15.2814C25.5676 15.5011 25.8655 15.6246 26.1762 15.625Z" fill="black"/>
<path d="M33.2074 15.625C33.4392 15.625 33.6657 15.5563 33.8585 15.4275C34.0512 15.2987 34.2014 15.1157 34.2901 14.9016C34.3788 14.6874 34.402 14.4518 34.3567 14.2245C34.3115 13.9972 34.1999 13.7884 34.036 13.6245C33.8721 13.4606 33.6633 13.349 33.436 13.3038C33.2087 13.2586 32.9731 13.2818 32.7589 13.3705C32.5448 13.4592 32.3618 13.6094 32.233 13.8021C32.1043 13.9948 32.0355 14.2214 32.0355 14.4531C32.0359 14.7638 32.1595 15.0617 32.3792 15.2814C32.5988 15.5011 32.8967 15.6246 33.2074 15.625Z" fill="black"/>
<path d="M27.3481 20.3125H28.8023C30.1597 20.3125 31.4479 19.9973 32.4292 19.4248L31.6419 18.0752C30.9066 18.504 29.8717 18.75 28.8023 18.75H27.3481V20.3125Z" fill="black"/>
<path d="M43.0556 28.322L34.3793 26.6953V24.2154C35.3503 23.4891 36.1383 22.5462 36.6808 21.4618C37.2233 20.3774 37.5053 19.1813 37.5043 17.9688C38.2268 17.9685 38.9269 17.718 39.4855 17.2598C40.044 16.8015 40.4266 16.1639 40.568 15.4554C40.7094 14.7469 40.6009 14.0112 40.261 13.3737C39.9212 12.7361 39.3709 12.236 38.7038 11.9585C39.2898 11.6136 39.7756 11.1219 40.1133 10.5318C40.451 9.94166 40.6288 9.27365 40.6293 8.59375C40.6293 8.38655 40.547 8.18784 40.4005 8.04132C40.254 7.89481 40.0552 7.8125 39.848 7.8125H37.5043V7.34824C37.5043 7.33184 37.5043 7.31533 37.5043 7.29941C37.5029 6.63105 37.4769 6.00898 37.4236 5.4002C37.3674 4.76611 37.286 4.12373 37.1822 3.49287C37.0248 2.51589 36.5225 1.62769 35.7662 0.989453C35.328 0.618292 34.818 0.341522 34.268 0.17645C33.718 0.0113784 33.1399 -0.0384445 32.5698 0.030097C31.9996 0.0986385 31.4498 0.28407 30.9546 0.574796C30.4594 0.865522 30.0295 1.25529 29.6918 1.71973C29.3542 1.25534 28.9244 0.865582 28.4293 0.574832C27.9343 0.284083 27.3845 0.0985896 26.8145 0.0299493C26.2445 -0.038691 25.6665 0.0109976 25.1165 0.175909C24.5666 0.34082 24.0566 0.617407 23.6184 0.988379C22.8623 1.62618 22.3599 2.51384 22.2023 3.49033C22.0981 4.12324 22.0168 4.76562 21.9604 5.40068C21.9073 6.0085 21.8812 6.63057 21.8799 7.29893C21.8799 7.31533 21.8799 7.33184 21.8799 7.34775V7.8125H19.5355C19.3283 7.8125 19.1296 7.89481 18.9831 8.04132C18.8366 8.18784 18.7543 8.38655 18.7543 8.59375C18.7548 9.27365 18.9326 9.94166 19.2703 10.5318C19.608 11.1219 20.0938 11.6136 20.6798 11.9585C20.0127 12.236 19.4624 12.7361 19.1226 13.3737C18.7827 14.0112 18.6742 14.7469 18.8156 15.4554C18.957 16.1639 19.3396 16.8015 19.8981 17.2598C20.4567 17.718 21.1568 17.9685 21.8793 17.9688C21.8783 19.1813 22.1603 20.3773 22.7028 21.4617C23.2453 22.5461 24.0334 23.4889 25.0043 24.2152V26.695L17.8473 28.0371C17.7896 27.2738 17.8135 26.5065 17.9187 25.7482C17.9659 25.4132 17.9812 25.0744 17.9644 24.7364C17.8426 22.1713 15.846 20.0476 13.2855 19.6167V9.50195L14.0268 7.27842C14.0533 7.19871 14.0668 7.11525 14.0668 7.03125V6.25H15.6293V4.6875H14.0668V3.125H15.6293V1.5625H14.0668V0.78125C14.0668 0.57405 13.9845 0.375336 13.838 0.228823C13.6915 0.08231 13.4927 0 13.2855 0H7.8168C7.6096 0 7.41088 0.08231 7.26437 0.228823C7.11786 0.375336 7.03555 0.57405 7.03555 0.78125V1.5625H5.47305V3.125H7.03555V4.6875H5.47305V6.25H7.03555V7.03125C7.03557 7.11522 7.04909 7.19864 7.07559 7.27832L7.8168 9.50195V19.6167C5.25635 20.0476 3.25977 22.171 3.13818 24.7323C3.12106 25.0709 3.1362 25.4104 3.1834 25.7461C3.41514 27.4477 3.37998 29.8878 1.89522 31.8511C0.606833 33.5542 -0.0603885 35.6467 0.00429729 37.7812C0.0433076 39.0046 0.326883 40.2077 0.838301 41.3197C1.34972 42.4317 2.07862 43.4301 2.98203 44.2559C4.79376 45.942 7.17775 46.8781 9.65273 46.875H11.4496C12.3597 46.8763 13.2653 46.7476 14.139 46.4929C14.5964 46.7419 15.1085 46.8732 15.6293 46.875H20.3168C20.3429 46.875 20.369 46.8737 20.3949 46.8711L29.6918 45.9414L38.9887 46.8711C39.0146 46.8737 39.0407 46.875 39.0668 46.875H43.7543C44.5828 46.8741 45.3771 46.5445 45.963 45.9587C46.5488 45.3728 46.8784 44.5785 46.8793 43.75V32.9297C46.8788 31.8364 46.4964 30.7777 45.7982 29.9364C45.1001 29.0951 44.13 28.5241 43.0556 28.322ZM45.3168 38.2812H40.0846L42.4283 36.7188H45.3168V38.2812ZM45.3168 32.9297V35.1562H42.1918C42.0375 35.1563 41.8867 35.2019 41.7584 35.2875L37.2678 38.2812H22.1158L17.6252 35.2875C17.4969 35.2019 17.3461 35.1563 17.1918 35.1562H14.0668V32.9297C14.0665 32.296 14.2593 31.6773 14.6196 31.1561C14.6275 31.1463 14.6349 31.1365 14.6424 31.1268C14.6383 31.1321 14.6335 31.1365 14.6293 31.1422C14.643 31.1227 14.6573 31.1036 14.6714 31.0843C14.668 31.0896 14.6652 31.0951 14.6616 31.1003C14.667 31.0926 14.672 31.0847 14.677 31.0768C15.1455 30.4394 15.8386 30.0038 16.616 29.858L22.8224 28.6941L23.1401 30.004C23.4964 31.473 24.3361 32.7797 25.5243 33.7141C26.7124 34.6486 28.1802 35.1566 29.6918 35.1566C31.2034 35.1566 32.6712 34.6486 33.8593 33.7141C35.0475 32.7797 35.8872 31.473 36.2435 30.004L36.5611 28.6941L42.768 29.8577C43.4842 29.9925 44.1309 30.3733 44.5962 30.9342C45.0616 31.4951 45.3165 32.2009 45.3168 32.9297ZM12.5043 40.625H7.8168V39.0625H12.5043V40.625ZM11.723 25.9451C10.9571 25.7267 10.1453 25.7267 9.3793 25.9451V10.1562H11.723V25.9451ZM9.03145 27.8062C9.44305 27.5311 9.92164 27.3728 10.4162 27.3484C10.9107 27.3239 11.4025 27.4342 11.8393 27.6674C12.276 27.9007 12.6412 28.2481 12.8959 28.6727C13.1507 29.0972 13.2853 29.583 13.2855 30.0781C13.2851 30.1743 13.2796 30.2703 13.2692 30.3659C12.973 30.8184 12.7575 31.3188 12.6321 31.8448C12.3794 32.1429 12.0656 32.3834 11.712 32.5498C11.3584 32.7163 10.9732 32.805 10.5824 32.8098C10.1916 32.8147 9.80432 32.7357 9.44668 32.5781C9.08904 32.4205 8.76938 32.1879 8.50929 31.8962C8.2492 31.6045 8.05473 31.2604 7.93902 30.887C7.8233 30.5137 7.78903 30.12 7.83853 29.7323C7.88802 29.3446 8.02013 28.972 8.22592 28.6398C8.43171 28.3075 8.7064 28.0233 9.03145 27.8062ZM37.5043 16.4062V13.2812C37.9187 13.2812 38.3161 13.4459 38.6091 13.7389C38.9022 14.0319 39.0668 14.4293 39.0668 14.8438C39.0668 15.2582 38.9022 15.6556 38.6091 15.9486C38.3161 16.2416 37.9187 16.4062 37.5043 16.4062ZM23.7445 3.74199C23.8448 3.13252 24.1587 2.5786 24.6299 2.1793C25.1012 1.78001 25.6991 1.56137 26.3168 1.5625C26.7469 1.56374 27.1702 1.67071 27.5492 1.87398C27.9283 2.07726 28.2516 2.37062 28.4906 2.72822C28.6233 2.92511 28.8023 3.08637 29.0119 3.19779C29.2215 3.30922 29.4553 3.36739 29.6927 3.36719C29.9301 3.36699 30.1638 3.30841 30.3732 3.19663C30.5826 3.08485 30.7614 2.92329 30.8937 2.72617C31.1328 2.36896 31.456 2.076 31.835 1.87308C32.2139 1.67016 32.6369 1.56351 33.0668 1.5625C33.6849 1.56133 34.2832 1.7802 34.7546 2.17992C35.226 2.57964 35.5397 3.1341 35.6396 3.74404C35.6912 4.05654 35.7363 4.37227 35.7756 4.6875H23.6078C23.6474 4.37187 23.6926 4.05605 23.7445 3.74199ZM23.4418 7.35156C23.4418 7.34668 23.4604 6.43232 23.4695 6.25H35.9141C35.9231 6.43232 35.9418 7.8125 35.9418 7.8125H23.4418V7.35156ZM22.6605 9.375H38.9329C38.7708 9.83165 38.4714 10.227 38.0758 10.5067C37.6801 10.7865 37.2076 10.9369 36.723 10.9375H22.6605C22.176 10.9369 21.7035 10.7865 21.3078 10.5067C20.9122 10.227 20.6128 9.83165 20.4507 9.375H22.6605ZM20.3168 14.8438C20.3173 14.4295 20.4821 14.0324 20.775 13.7394C21.0679 13.4465 21.465 13.2817 21.8793 13.2812V16.4062C21.465 16.4058 21.0679 16.241 20.775 15.9481C20.4821 15.6551 20.3173 15.258 20.3168 14.8438ZM23.4418 17.9688V12.5293L23.4669 12.5H35.9167L35.9418 12.5293V17.9688C35.9431 19.0895 35.6427 20.1899 35.0721 21.1545C34.5015 22.1191 33.6817 22.9123 32.6988 23.4509C31.7159 23.9894 30.6062 24.2534 29.4861 24.2151C28.366 24.1769 27.2769 23.8378 26.333 23.2335C26.3263 23.2291 26.3194 23.2249 26.3125 23.2207C26.2973 23.2116 26.2812 23.2023 26.2647 23.193L26.2511 23.1851C26.2407 23.1773 26.2302 23.17 26.2195 23.1629C25.3644 22.5931 24.6633 21.8207 24.1787 20.9145C23.694 20.0083 23.4409 18.9964 23.4418 17.9688ZM25.2917 28.2308C25.6499 28.1636 25.9733 27.9733 26.2061 27.693C26.439 27.4126 26.5665 27.0597 26.5668 26.6953V25.1256C27.5519 25.5575 28.6158 25.7807 29.6915 25.7812C30.7671 25.7818 31.8312 25.5596 32.8168 25.1287V26.6953C32.8171 27.0597 32.9446 27.4126 33.1774 27.693C33.4102 27.9733 33.7336 28.1635 34.0918 28.2308L35.0233 28.4055L34.725 29.6355C34.4512 30.7639 33.8062 31.7677 32.8934 32.4855C31.9806 33.2034 30.853 33.5936 29.6918 33.5936C28.5306 33.5936 27.403 33.2034 26.4902 32.4855C25.5774 31.7677 24.9324 30.7639 24.6586 29.6355L24.3598 28.4055L25.2917 28.2308ZM16.4038 24.8145C16.4157 25.0558 16.4046 25.2978 16.3705 25.5371C16.2422 26.4615 16.2202 27.3975 16.3048 28.3269C15.7353 28.4365 15.1912 28.6512 14.7003 28.9601C14.4706 28.0981 13.9757 27.3301 13.2855 26.7649V21.209C15.009 21.6113 16.3209 23.0688 16.4038 24.8145ZM8.59805 1.5625H12.5043V6.9043L11.9412 8.59375H9.16113L8.59805 6.9043V1.5625ZM9.65273 45.3125C5.31934 45.3125 1.6918 41.913 1.5668 37.737C1.51303 35.957 2.06929 34.2121 3.14336 32.7916C4.94805 30.4051 5.00332 27.5279 4.73154 25.533C4.69774 25.2937 4.68685 25.0517 4.69902 24.8104C4.78145 23.0683 6.09336 21.6113 7.8168 21.209V26.7656C6.99928 27.4388 6.45932 28.3904 6.3006 29.4375C6.14189 30.4845 6.37562 31.5533 6.95691 32.4386C7.5382 33.3238 8.42605 33.9631 9.44995 34.2336C10.4739 34.5042 11.5616 34.3869 12.5043 33.9043V37.5H7.03555C6.82835 37.5 6.62963 37.5823 6.48312 37.7288C6.33661 37.8753 6.2543 38.0741 6.2543 38.2812V41.4062C6.2543 41.6134 6.33661 41.8122 6.48312 41.9587C6.62963 42.1052 6.82835 42.1875 7.03555 42.1875H12.5043V43.75C12.5046 44.2509 12.6248 44.7444 12.8551 45.1893C12.3911 45.2711 11.9208 45.3123 11.4496 45.3125H9.65273ZM15.6293 45.3125C15.2959 45.3114 14.9715 45.2043 14.703 45.0066C14.504 44.8636 14.3422 44.6747 14.2315 44.456C14.1208 44.2373 14.0643 43.9951 14.0668 43.75H16.174L18.3209 45.1813C18.4492 45.2668 18.6 45.3125 18.7543 45.3125H15.6293ZM45.3168 43.75C45.3163 44.1642 45.1515 44.5614 44.8586 44.8543C44.5657 45.1472 44.1685 45.312 43.7543 45.3125H39.1059L23.5199 43.7539C23.494 43.7513 23.4679 43.75 23.4418 43.75H18.9908L16.8439 42.3187C16.7156 42.2332 16.5648 42.1875 16.4105 42.1875H14.0668V36.7188H16.9553L21.4459 39.7125C21.5742 39.7981 21.725 39.8437 21.8793 39.8438H45.3168V43.75Z" fill="black"/>
</svg>
